<?xml version="1.0" encoding="UTF-8"?>
<map version="1.10" tiledversion="1.12.2" orientation="orthogonal" renderorder="right-down" width="40" height="23" tilewidth="16" tileheight="16" infinite="0" nextlayerid="4" nextobjectid="1">
 <tileset firstgid="1" source="tileset.tsx"/>
 <tileset firstgid="2029" source="tiles2.tsx"/>
 <tileset firstgid="2429" source="tiles1.tsx"/>
 <layer id="1" name="suelo" width="40" height="23">
  <data encoding="csv">
2167,2167,2167,2167,2167,2167,2167,2167,2167,2167,2167,2167,2167,2167,2167,2167,2167,2167,2167,2167,2167,2167,2167,2167,2167,2167,2167,2167,2167,2167,2167,2167,2167,2167,2167,2167,2167,2167,2167,2167,
2167,506,560,560,560,560,560,560,560,560,560,560,507,2167,2167,2167,2167,2167,2167,2167,2167,2167,2167,2167,2167,2167,2167,506,560,560,560,560,560,560,560,560,560,560,507,2167,
2167,612,610,610,610,610,610,610,610,610,610,610,611,2167,2167,2167,2167,2167,2167,2167,2167,2167,2167,2167,2167,2167,2167,612,610,610,610,610,610,610,610,610,610,610,611,2167,
2167,612,610,610,610,610,610,610,610,610,610,610,611,2167,2167,2167,2167,2167,2167,2167,2167,2167,2167,2167,2167,2167,2167,612,610,610,610,610,610,610,610,610,610,610,611,2167,
2167,612,610,610,610,610,610,610,610,610,610,610,611,2167,2167,2167,2167,2167,2167,2167,2167,2167,2167,2167,2167,2167,2167,612,610,610,610,610,610,610,610,610,610,610,611,2167,
2167,612,610,610,610,610,610,610,610,610,610,610,611,2167,2167,2167,2167,2167,2167,2167,2167,2167,2167,2167,2167,2167,2167,612,610,610,610,610,610,610,610,610,610,610,611,2167,
2167,612,610,610,610,610,610,610,610,610,610,610,611,2167,2167,2167,2167,2167,2167,2167,2167,2167,2167,2167,2167,2167,2167,612,610,610,610,610,610,610,610,610,610,610,611,2167,
2167,612,610,610,610,610,610,610,610,610,610,610,611,2167,2167,2167,2167,2167,2167,2167,2167,2167,2167,2167,2167,2167,2167,612,610,610,610,610,610,610,610,610,610,610,611,2167,
2167,558,508,508,508,508,508,508,508,508,508,508,559,2167,2167,2167,2167,2167,2167,2167,2167,2167,2167,2167,2167,2167,2167,558,508,508,508,508,508,508,508,508,508,508,559,2167,
2167,2167,2167,2167,2167,2167,2167,2167,2167,2167,2167,2167,2167,2167,2167,2167,2167,2167,2167,2167,2167,2167,2167,2167,2167,2167,2167,2167,2167,2167,2167,2167,2167,2167,2167,2167,2167,2167,2167,2167,
2167,2167,2167,2167,2167,2167,2167,2167,2167,2167,2167,2167,2167,2167,2167,2167,2167,2167,2167,2167,2167,2167,2167,2167,2167,2167,2167,2167,2167,2167,2167,2167,2167,2167,2167,2167,2167,2167,2167,2167,
2167,2167,2167,2167,2167,2167,2167,2167,2167,2167,2167,2167,2167,2167,2167,2167,2167,2167,2167,2167,2167,2167,2167,2167,2167,2167,2167,2167,2167,2167,2167,2167,2167,2167,2167,2167,2167,2167,2167,2167,
2167,2167,2167,2167,2167,2167,2167,2167,2167,2167,2167,2167,2167,2167,2167,2167,2167,2167,2167,2167,2167,2167,2167,2167,2167,2167,2167,2167,2167,2167,2167,2167,2167,2167,2167,2167,2167,2167,2167,2167,
2167,2167,2167,2167,2167,2167,2167,2167,2167,2167,2167,2167,2167,2167,2167,2167,2167,2167,2167,2167,2167,2167,2167,2167,2167,2167,2167,2167,2167,2167,2167,2167,2167,2167,2167,2167,2167,2167,2167,2167,
2167,506,560,560,560,560,560,560,560,560,560,560,507,2167,2167,2167,2167,2167,2167,2167,2167,2167,2167,2167,2167,2167,2167,506,560,560,560,560,560,560,560,560,560,560,507,2167,
2167,612,610,610,610,610,610,610,610,610,610,610,611,2167,2167,2167,2167,2167,2167,2167,2167,2167,2167,2167,2167,2167,2167,612,610,610,610,610,610,610,610,610,610,610,611,2167,
2167,612,610,610,610,610,610,610,610,610,610,610,611,2167,2167,2167,2167,2167,2167,2167,2167,2167,2167,2167,2167,2167,2167,612,610,610,610,610,610,610,610,610,610,610,611,2167,
2167,612,610,610,610,610,610,610,610,610,610,610,611,2167,2167,2167,2167,2167,2167,2167,2167,2167,2167,2167,2167,2167,2167,612,610,610,610,610,610,610,610,610,610,610,611,2167,
2167,612,610,610,610,610,610,610,610,610,610,610,611,2167,2167,2167,2167,2167,2167,2167,2167,2167,2167,2167,2167,2167,2167,612,610,610,610,610,610,610,610,610,610,610,611,2167,
2167,612,610,610,610,610,610,610,610,610,610,610,611,2167,2167,2167,2167,2167,2167,2167,2167,2167,2167,2167,2167,2167,2167,612,610,610,610,610,610,610,610,610,610,610,611,2167,
2167,612,610,610,610,610,610,610,610,610,610,610,611,2167,2167,2167,2167,2167,2167,2167,2167,2167,2167,2167,2167,2167,2167,612,610,610,610,610,610,610,610,610,610,610,611,2167,
2167,558,508,508,508,508,508,508,508,508,508,508,559,2167,2167,2167,2167,2167,2167,2167,2167,2167,2167,2167,2167,2167,2167,558,508,508,508,508,508,508,508,508,508,508,559,2167,
2167,2167,2167,2167,2167,2167,2167,2167,2167,2167,2167,2167,2167,2167,2167,2167,2167,2167,2167,2167,2167,2167,2167,2167,2167,2167,2167,2167,2167,2167,2167,2167,2167,2167,2167,2167,2167,2167,2167,2167
</data>
 </layer>
 <layer id="2" name="obstaculos" width="40" height="23">
  <data encoding="csv">
1121,1122,1122,1122,1122,1122,1122,1122,1122,1122,1122,1122,1122,1122,1122,1122,1122,1122,1122,1122,1122,1122,1122,1122,1122,1122,1122,1122,1122,1122,1122,1122,1122,1122,1122,1122,1122,1122,1122,1123,
1173,2621,2603,2604,2622,2622,2622,2622,2622,2622,2622,2622,2626,0,0,0,0,0,0,0,0,0,0,0,0,0,0,2621,2622,2622,2622,2622,2622,2622,2622,2622,2603,2604,2626,1175,
1173,2655,2656,0,0,0,0,0,2536,2537,2538,2539,2540,0,0,0,0,0,0,0,0,0,0,0,0,0,0,2635,0,0,0,0,0,0,0,0,0,2639,2640,1175,
1173,2675,2676,0,0,0,0,0,2556,2557,2558,2559,2560,0,0,0,0,0,0,0,0,0,0,0,0,0,0,2635,0,0,0,0,0,0,0,0,0,2659,2660,1175,
1173,2635,0,0,0,0,0,0,0,0,0,0,2635,0,0,0,0,0,0,0,0,0,0,0,0,0,0,2635,0,0,0,0,0,0,0,0,0,0,2635,1175,
1173,2635,0,0,0,0,0,0,0,0,0,0,2635,0,0,0,0,0,0,0,0,0,0,0,0,0,0,2635,0,0,0,0,0,0,0,0,0,0,2635,1175,
1173,2635,0,0,0,0,0,0,0,0,0,0,2635,0,0,0,0,0,0,0,0,0,0,0,0,0,0,2635,0,0,0,0,0,0,2536,2537,2538,2539,2540,1175,
1173,2635,0,0,0,0,0,0,0,0,0,0,2635,0,0,0,0,0,0,0,0,0,2289,2290,2291,2291,2292,2635,0,0,0,0,0,0,2556,2557,2558,2559,2560,1175,
1173,2695,2697,2697,2697,2697,2697,2697,2697,2667,0,2648,2700,0,0,0,0,0,0,0,0,0,0,0,0,0,0,2695,2667,0,2648,2697,2697,2697,2697,2697,2697,2697,2700,1175,
1173,0,0,0,0,0,0,0,0,0,0,0,0,0,0,0,0,0,0,0,0,0,0,0,0,0,0,0,0,0,0,0,0,0,0,0,0,0,0,1175,
1173,0,0,0,0,0,0,0,0,0,0,0,0,0,0,0,0,0,0,0,0,0,0,0,0,0,0,0,0,0,0,0,0,0,0,0,0,0,0,1175,
1173,0,0,0,0,0,0,0,0,0,0,0,0,0,0,0,0,0,0,0,0,0,0,0,0,0,0,0,0,0,0,0,0,0,0,0,0,0,0,1175,
1173,0,0,0,0,0,0,0,0,0,0,0,0,0,0,2309,0,0,0,0,0,0,0,0,0,0,0,0,0,0,0,0,0,0,0,0,0,0,0,1175,
1173,0,0,0,0,0,0,0,0,0,0,0,0,0,0,2329,0,0,0,0,0,0,0,0,0,0,0,0,0,0,0,0,0,0,0,0,0,0,0,1175,
1173,2621,2622,2622,2622,2622,2622,2622,2622,2647,0,2627,2626,0,0,2349,0,0,0,0,0,0,0,0,0,0,0,2621,2647,0,2627,2622,2622,2622,2622,2622,2622,2622,2626,1175,
1173,2635,0,0,0,0,0,0,0,0,0,0,2635,0,0,2369,0,0,0,0,0,0,0,0,0,0,0,2635,0,0,0,0,0,0,0,0,0,2659,2660,1175,
1173,2635,0,0,0,0,0,0,0,0,0,0,2635,0,0,0,0,0,0,0,0,0,0,0,0,0,0,2635,0,0,0,0,0,0,0,0,0,2639,2640,1175,
1173,2635,0,0,0,0,0,0,0,0,0,0,2635,0,0,0,0,0,0,0,0,0,0,0,0,0,0,2635,0,0,0,0,0,0,0,0,0,0,2635,1175,
1173,2635,0,0,0,0,0,0,0,0,0,0,2635,0,0,0,0,0,0,0,0,0,0,0,0,0,0,2635,0,0,0,0,0,0,0,0,0,0,2635,1175,
1173,2655,2656,0,0,0,0,0,2536,2537,2538,2539,2540,0,0,0,0,0,0,0,0,0,0,0,0,0,0,2575,2576,2577,2578,2579,0,0,0,0,0,0,2635,1175,
1173,2675,2676,0,0,0,0,0,2556,2557,2558,2559,2560,0,0,0,0,0,0,0,0,0,0,0,0,0,0,2595,2596,2597,2598,2599,0,0,0,0,0,0,2635,1175,
1173,2695,2605,2606,2697,2697,2697,2697,2697,2697,2697,2697,2700,0,0,0,0,0,0,0,0,0,0,0,0,0,0,2695,2697,2697,2697,2697,2697,2697,2697,2697,2605,2606,2700,1175,
1225,1226,1226,1226,1226,1226,1226,1226,1226,1226,1226,1226,1226,1226,1226,1226,1226,1226,1226,1226,1226,1226,1226,1226,1226,1226,1226,1226,1226,1226,1226,1226,1226,1226,1226,1226,1226,1226,1226,1227
</data>
 </layer>
 <layer id="3" name="colisiones" width="40" height="23">
  <data encoding="csv">
866,866,866,866,866,866,866,866,866,866,866,866,866,866,866,866,866,866,866,866,866,866,866,866,866,866,866,866,866,866,866,866,866,866,866,866,866,866,866,866,
866,866,866,866,866,866,866,866,866,866,866,866,866,0,0,0,0,0,0,0,0,0,0,0,0,0,0,866,866,866,866,866,866,866,866,866,866,866,866,866,
866,866,866,0,0,0,0,0,866,866,866,866,866,0,0,0,0,0,0,0,0,0,0,0,0,0,0,866,0,0,0,0,0,0,0,0,0,866,866,866,
866,866,866,0,0,0,0,0,866,866,866,866,866,0,0,0,0,0,0,0,0,0,0,0,0,0,0,866,0,0,0,0,0,0,0,0,0,866,866,866,
866,866,0,0,0,0,0,0,0,0,0,0,866,0,0,0,0,0,0,0,0,0,0,0,0,0,0,866,0,0,0,0,0,0,0,0,0,0,866,866,
866,866,0,0,0,0,0,0,0,0,0,0,866,0,0,0,0,0,0,0,0,0,0,0,0,0,0,866,0,0,0,0,0,0,0,0,0,0,866,866,
866,866,0,0,0,0,0,0,0,0,0,0,866,0,0,0,0,0,0,0,0,0,0,0,0,0,0,866,0,0,0,0,0,0,866,866,866,866,866,866,
866,866,0,0,0,0,0,0,0,0,0,0,866,0,0,0,0,0,0,0,0,0,866,866,866,866,866,866,0,0,0,0,0,0,866,866,866,866,866,866,
866,866,866,866,866,866,866,866,866,866,0,866,866,0,0,0,0,0,0,0,0,0,0,0,0,0,0,866,866,0,866,866,866,866,866,866,866,866,866,866,
866,0,0,0,0,0,0,0,0,0,0,0,0,0,0,0,0,0,0,0,0,0,0,0,0,0,0,0,0,0,0,0,0,0,0,0,0,0,0,866,
866,0,0,0,0,0,0,0,0,0,0,0,0,0,0,0,0,0,0,0,0,0,0,0,0,0,0,0,0,0,0,0,0,0,0,0,0,0,0,866,
866,0,0,0,0,0,0,0,0,0,0,0,0,0,0,0,0,0,0,0,0,0,0,0,0,0,0,0,0,0,0,0,0,0,0,0,0,0,0,866,
866,0,0,0,0,0,0,0,0,0,0,0,0,0,0,866,0,0,0,0,0,0,0,0,0,0,0,0,0,0,0,0,0,0,0,0,0,0,0,866,
866,0,0,0,0,0,0,0,0,0,0,0,0,0,0,866,0,0,0,0,0,0,0,0,0,0,0,0,0,0,0,0,0,0,0,0,0,0,0,866,
866,866,866,866,866,866,866,866,866,866,0,866,866,0,0,866,0,0,0,0,0,0,0,0,0,0,0,866,866,0,866,866,866,866,866,866,866,866,866,866,
866,866,0,0,0,0,0,0,0,0,0,0,866,0,0,866,0,0,0,0,0,0,0,0,0,0,0,866,0,0,0,0,0,0,0,0,0,866,866,866,
866,866,0,0,0,0,0,0,0,0,0,0,866,0,0,0,0,0,0,0,0,0,0,0,0,0,0,866,0,0,0,0,0,0,0,0,0,866,866,866,
866,866,0,0,0,0,0,0,0,0,0,0,866,0,0,0,0,0,0,0,0,0,0,0,0,0,0,866,0,0,0,0,0,0,0,0,0,0,866,866,
866,866,0,0,0,0,0,0,0,0,0,0,866,0,0,0,0,0,0,0,0,0,0,0,0,0,0,866,0,0,0,0,0,0,0,0,0,0,866,866,
866,866,866,0,0,0,0,0,866,866,866,866,866,0,0,0,0,0,0,0,0,0,0,0,0,0,0,866,866,866,866,866,0,0,0,0,0,0,866,866,
866,866,866,0,0,0,0,0,866,866,866,866,866,0,0,0,0,0,0,0,0,0,0,0,0,0,0,866,866,866,866,866,0,0,0,0,0,0,866,866,
866,866,866,866,866,866,866,866,866,866,866,866,866,0,0,0,0,0,0,0,0,0,0,0,0,0,0,866,866,866,866,866,866,866,866,866,866,866,866,866,
866,866,866,866,866,866,866,866,866,866,866,866,866,866,866,866,866,866,866,866,866,866,866,866,866,866,866,866,866,866,866,866,866,866,866,866,866,866,866,866
</data>
 </layer>
</map>
